X: 1460
T: Nev`eser Sirto
C: Nev´eser Kökdeş
O: Turkey
F: http://compmusic.upf.edu/node/140
N: neveser--sirto--sofyan----neveser_kokdes
N: makam= neveser
N: form= sirto
N: usul= sofyan = 4/4
M: 4/4
L: 1/16
K: C _7/8B _7/8e ^f ^c
Q: 1/4=117
%%MIDI tuningsystem comma53
z2gf g2a2 g2f2 e2d2  | z2dc d2e2 d2c2 B2A2  | \
w:   |   | 
z2GF G2A2 B2c2 d2e2  | 
w:   | 
d3e f2g2 a2f2 e2d2  | z2gf g2a2 g2f2 e2d2  | \
w:   |   | 
z2dc d2e2 d2c2 B2A2  | 
w:   | 
z2GF G2A2 B2G2 A2F2  | G16  | =c2c=B c2=e2 d2B2 c2A2  | \
w:   |   |   | 
G2=c=B c2=e2 d2B2 c2A2  | 
w:   | 
G3A =B2=c2 d2e2 f2g2  | a3^g a2=b2 a2=g2 fed2  | \
w:   |   | 
=c2c=B c2=e2 d2B2 c2A2  | 
w:   | 
G2=c=B c2=e2 d2B2 c2A2  | G3=c =B2A2 G4 FGAF  | G16  | \
w:   |   |   | 
d3e d2c2 d2e2 f2g2  | 
w:   | 
a6a2 a2a2 a4  | b6b2 a2g2 f2g2  | a6a2 a2a2 a4  | \
w:   |   |   | 
bag2 agf2 gfe2 fed2  | 
w:   | 
dcde d2c2 B2A2 G2A2  | B3c d2c2 B3A G2F2  | G16  | \
w:   |   |   | 
d3e d2c2 d2e2 f2g2  | 
w:   | 
a6a2 a2a2 a4  | b6b2 a2g2 f2g2  | a6a2 a2a2 a4  | \
w:   |   |   | 
bag2 agf2 gfe2 fed2  | 
w:   | 
dcde d2c2 B2A2 G2A2  | B3c d2c2 B3A G2F2  | G16  | |


